src/assets/svg-icons/twitter-icon.svg

<svg width="36" height="30" viewBox="0 0 36 30" fill="none" xmlns="http://www.w3.org/2000/svg">
<path d="M36 3.83775C34.6613 4.425 33.2347 4.81425 31.7475 5.00325C33.2775 4.08975 34.4453 2.65425 34.9943 0.924C33.5678 1.7745 31.9927 2.37525 30.3142 2.7105C28.9597 1.26825 27.0292 0.375 24.9232 0.375C20.8372 0.375 17.5477 3.6915 17.5477 7.75725C17.5477 8.34225 17.5972 8.90475 17.7188 9.44025C11.583 9.141 6.15375 6.20025 2.5065 1.7205C1.86975 2.82525 1.49625 4.08975 1.49625 5.451C1.49625 8.007 2.8125 10.2727 4.7745 11.5845C3.58875 11.562 2.4255 11.2178 1.44 10.6755C1.44 10.698 1.44 10.7273 1.44 10.7565C1.44 14.343 3.99825 17.322 7.353 18.0082C6.75225 18.1725 6.0975 18.2512 5.418 18.2512C4.9455 18.2512 4.4685 18.2243 4.02075 18.1252C4.977 21.048 7.6905 23.1967 10.917 23.2665C8.406 25.2307 5.21775 26.4142 1.76625 26.4142C1.161 26.4142 0.5805 26.3872 0 26.313C3.26925 28.4212 7.14375 29.625 11.322 29.625C24.903 29.625 32.328 18.375 32.328 8.6235C32.328 8.29725 32.3167 7.98225 32.301 7.6695C33.7658 6.63 34.9965 5.33175 36 3.83775Z" fill="black"/>
</svg>

<svg xmlns="http://www.w3.org/2000/svg" width="36" height="30" fill="none" viewBox="0 0 36 30"><path fill="#000" d="M36 3.838a15.387 15.387 0 0 1-4.253 1.165A7.339 7.339 0 0 0 34.995.924a14.75 14.75 0 0 1-4.68 1.787 7.396 7.396 0 0 0-5.39-2.336c-4.087 0-7.376 3.317-7.376 7.382 0 .585.05 1.148.17 1.683C11.584 9.141 6.155 6.2 2.507 1.72a7.43 7.43 0 0 0-1.01 3.731 7.391 7.391 0 0 0 3.279 6.134 7.288 7.288 0 0 1-3.335-.91v.082c0 3.586 2.558 6.565 5.913 7.251-.6.165-1.255.243-1.935.243-.473 0-.95-.027-1.397-.126.956 2.923 3.67 5.072 6.896 5.142a14.83 14.83 0 0 1-9.15 3.147c-.606 0-1.186-.027-1.767-.101 3.27 2.108 7.144 3.312 11.322 3.312 13.581 0 21.006-11.25 21.006-21.002 0-.326-.011-.64-.027-.953C33.766 6.63 34.996 5.332 36 3.838Z"/></svg>
